svgs/core.svg

<svg width="192" height="192" viewBox="0 0 192 192" fill="none" xmlns="http://www.w3.org/2000/svg">
<path d="M130.285 34H157.637V43.7324C157.637 45.7231 158.687 47.5416 160.217 48.8164C175.397 61.4724 172.632 97.0145 153.863 106.847C149.431 119.229 138.144 127.889 130.157 134.071C128.665 135.226 127.741 136.983 127.741 138.869V145.103V150.944H103.093C102.216 150.944 101.357 151.144 100.559 151.507C81.2033 160.316 50.2575 162.639 22 148.764L67.7372 103.609C54.496 91.711 51.7964 60.5176 66.8608 48.7607C68.1425 47.5535 68.9585 45.9045 68.9585 44.1438C68.9585 40.9178 68.9585 34 68.9585 34H96.8551C104.587 34.8293 108.435 40.1429 113.752 45.8884C118.342 40.3547 122.002 34.7626 130.285 34Z" stroke="black" stroke-width="12" stroke-linecap="round" stroke-linejoin="round"/>
<path d="M95.9903 94.3603C105.668 94.3603 113.514 86.5145 113.514 76.8363C113.514 67.1581 105.668 59.3124 95.9903 59.3124C86.3121 59.3124 78.4663 67.1581 78.4663 76.8363C78.4663 86.5145 86.3121 94.3603 95.9903 94.3603Z" stroke="black" stroke-width="10"/>
<path d="M131.038 94.3603C140.716 94.3603 148.562 86.5145 148.562 76.8363C148.562 67.1581 140.716 59.3124 131.038 59.3124C121.36 59.3124 113.514 67.1581 113.514 76.8363C113.514 86.5145 121.36 94.3603 131.038 94.3603Z" stroke="black" stroke-width="10"/>
<path d="M99.0698 76.9156C99.0698 78.5725 97.7268 79.9156 96.0698 79.9156C94.4129 79.9156 93.0698 78.5725 93.0698 76.9156C93.0698 75.2587 94.4129 73.9156 96.0698 73.9156C97.7268 73.9156 99.0698 75.2587 99.0698 76.9156Z" stroke="black" stroke-width="6"/>
<path d="M134.118 76.9156C134.118 78.5725 132.775 79.9156 131.118 79.9156C129.461 79.9156 128.118 78.5725 128.118 76.9156C128.118 75.2587 129.461 73.9156 131.118 73.9156C132.775 73.9156 134.118 75.2587 134.118 76.9156Z" stroke="black" stroke-width="6"/>
<path d="M115.461 85.5983L113.514 102.149L111.567 85.5983H115.461Z" stroke="black" stroke-width="10" stroke-linejoin="round"/>
</svg>

<svg xmlns="http://www.w3.org/2000/svg" width="192" height="192" fill="none"><path stroke="#000" stroke-linecap="round" stroke-linejoin="round" stroke-width="12" d="M130.285 34h27.352v9.732c0 1.991 1.05 3.81 2.58 5.084 15.18 12.656 12.415 48.198-6.354 58.031-4.432 12.382-15.719 21.042-23.706 27.224-1.492 1.155-2.416 2.912-2.416 4.798v12.075h-24.648c-.877 0-1.736.2-2.534.563-19.356 8.809-50.301 11.132-78.559-2.743l45.737-45.155c-13.241-11.898-15.94-43.091-.876-54.848 1.281-1.208 2.097-2.857 2.097-4.617V34h27.897c7.732.83 11.58 6.143 16.897 11.888 4.59-5.533 8.25-11.125 16.533-11.888"/><path stroke="#000" stroke-width="10" d="M95.99 94.36c9.678 0 17.524-7.846 17.524-17.524s-7.846-17.524-17.524-17.524-17.524 7.846-17.524 17.524S86.312 94.36 95.99 94.36ZM131.038 94.36c9.678 0 17.524-7.846 17.524-17.524s-7.846-17.524-17.524-17.524-17.524 7.846-17.524 17.524 7.846 17.524 17.524 17.524Z"/><path stroke="#000" stroke-width="6" d="M99.07 76.916a3 3 0 1 1-6 0 3 3 0 0 1 6 0ZM134.118 76.916a3 3 0 1 1-6 0 3 3 0 0 1 6 0Z"/><path stroke="#000" stroke-linejoin="round" stroke-width="10" d="m115.461 85.598-1.947 16.551-1.947-16.55z"/></svg>
